archdroid-icon-theme/Archdroid-BlueGrey/apps/scalable/preferences-desktop-keyboard-shortcuts.svg

<svg fill="#607D8B" height="48" viewBox="0 0 48 48" width="48" xmlns="http://www.w3.org/2000/svg"><g fill="#607D8B"><path d="m6 24c-.276542 0-.539738-.055852-.77832-.157227-.714739-.303695-1.211914-1.014315-1.211914-1.842773l-.009766-14c0-1.105.895-2 2-2h14c1.105 0 2 .895 2 2v14c0 1.105-.895 2-2 2h-1-2-8-2zm0-5h14v-11h-14z"/><path d="m26 24c-.276542 0-.539738-.055852-.77832-.157227-.714739-.303696-1.211914-1.014316-1.211914-1.842773l-.009766-14c0-1.105.895-2 2-2h14c1.105 0 2 .895 2 2v14c0 1.105-.895 2-2 2h-1-2-8-2zm0-5h14v-11h-14z"/><path d="m7.333333 44c-.460904 0-.899563-.055852-1.2972-.157227-1.191231-.303695-2.019857-1.014315-2.019857-1.842773l-.016276-14c0-1.105 1.491667-2 3.333333-2h23.333334c1.841666 0 3.333333.895 3.333333 2v14c0 1.105-1.491667 2-3.333333 2h-1.666667-3.333333-13.333333-3.333333-1.666667zm0-5h23.333333v-11h-23.333333z"/></g></svg>

<svg fill="#607D8B" height="48" version="1.1" viewBox="0 0 48 48" width="48" xmlns="http://www.w3.org/2000/svg"><path d="M6 24C5.723458 24 5.460262 23.944148 5.22168 23.842773 4.506941 23.539078 4.009766 22.828458 4.009766 22L4 8C4 6.895 4.895 6 6 6L20 6C21.105 6 22 6.895 22 8L22 22C22 23.105 21.105 24 20 24l-1 0-2 0-8 0-2 0-1 0zm0-5l14 0 0-11-14 0 0 11z" fill="#607D8B"/><path d="M26 24C25.723458 24 25.460262 23.944148 25.22168 23.842773c-.714739-.303696-1.211914-1.014316-1.211914-1.842773l-.009766-14c0-1.105.895-2 2-2l14 0C41.105 6 42 6.895 42 8L42 22C42 23.105 41.105 24 40 24l-1 0-2 0-8 0-2 0-1 0zm0-5l14 0 0-11-14 0 0 11z" fill="#607D8B"/><path d="M7.333333 44C6.872429 44 6.43377 43.944148 6.036133 43.842773 4.844902 43.539078 4.016276 42.828458 4.016276 42L4 28c0-1.105 1.491667-2 3.333333-2L30.666667 26C32.508333 26 34 26.895 34 28l0 14c0 1.105-1.491667 2-3.333333 2l-1.666667 0-3.333333 0-13.333333 0-3.333333 0-1.666667 0zm0-5l23.333333 0 0-11-23.333333 0 0 11z" fill="#607D8B"/></svg>
